<?xml version="1.0" encoding="UTF-8"?>
<map version="1.10" tiledversion="1.11.2" orientation="orthogonal" renderorder="right-down" width="19" height="11" tilewidth="16" tileheight="16" infinite="0" nextlayerid="3" nextobjectid="18">
 <properties>
  <property name="camShouldMove" type="bool" value="false"/>
 </properties>
 <tileset firstgid="1" source="../../../sinAssets.tsx"/>
 <tileset firstgid="6" source="../../../props.tsx"/>
 <layer id="1" name="Tile Layer 1" width="19" height="11">
  <data encoding="csv">
1,1,1,1,1,1,1,1,1,1,1,1,1,1,1,1,1,1,1,
3,5,5,5,5,5,5,5,5,5,5,5,5,5,5,5,5,5,2,
3,5,5,5,5,5,5,5,5,5,5,5,5,5,5,5,5,5,2,
3,5,5,5,5,5,5,5,5,5,5,5,5,5,5,5,5,5,2,
3,5,5,5,5,5,5,5,5,5,5,5,5,5,5,5,5,5,2,
3,5,5,5,5,5,5,5,5,5,5,5,5,5,5,5,5,5,2,
3,5,5,5,5,5,5,5,5,5,5,5,5,5,5,5,5,5,2,
3,5,5,5,5,5,5,5,5,5,5,5,5,5,5,5,5,5,2,
3,5,5,5,5,5,5,5,5,5,5,5,5,5,5,5,5,5,2,
3,5,5,5,5,5,5,5,5,5,5,5,5,5,5,5,5,5,2,
4,4,4,4,4,4,4,4,4,0,4,4,4,4,4,4,4,4,4
</data>
 </layer>
 <objectgroup id="2" name="Object Layer 1">
  <object id="12" name="Table" gid="6" x="216.699" y="47.9858" width="46.47" height="26.5618">
   <properties>
    <property name="functionField" value=""/>
   </properties>
  </object>
  <object id="13" name="Bed" gid="7" x="50.6042" y="79.4064" width="26" height="48">
   <properties>
    <property name="functionField" value=""/>
   </properties>
  </object>
  <object id="14" name="Exit" gid="8" x="137.519" y="176.046" width="29" height="13">
   <properties>
    <property name="functionField" value=""/>
   </properties>
  </object>
  <object id="15" name="Windows" gid="9" x="58.3251" y="176.046" width="36" height="13">
   <properties>
    <property name="functionField" value=""/>
   </properties>
  </object>
  <object id="16" name="Curtains" gid="10" x="291.081" y="105.283" width="12.477" height="39.9541">
   <properties>
    <property name="functionField" value=""/>
   </properties>
  </object>
  <object id="17" name="Chest" gid="11" x="189.36" y="47.3357" width="21.2792" height="15.6502">
   <properties>
    <property name="functionField" value=""/>
   </properties>
  </object>
 </objectgroup>
</map>
