<?xml version="1.0" encoding="UTF-8"?>
<map version="1.10" tiledversion="1.11.2" orientation="orthogonal" renderorder="right-down" width="19" height="11" tilewidth="16" tileheight="16" infinite="0" nextlayerid="3" nextobjectid="4">
 <tileset firstgid="1" source="villageElder.tsx"/>
 <tileset firstgid="4" source="../../../elderProps.tsx"/>
 <layer id="1" name="Tile Layer 1" width="19" height="11">
  <data encoding="csv">
1,1,1,1,1,1,1,1,1,1,1,1,1,1,1,1,1,1,1,
1,3,3,3,3,3,3,3,3,3,3,3,3,3,3,3,3,3,1,
1,3,3,3,3,3,3,3,3,3,3,3,3,3,3,3,3,3,1,
1,3,3,3,3,3,3,3,3,3,3,3,3,3,3,3,3,3,1,
1,3,3,3,3,3,3,3,3,3,3,3,3,3,3,3,3,3,1,
1,3,3,3,3,3,3,3,3,3,3,3,3,3,3,3,3,3,1,
1,3,3,3,3,3,3,3,3,3,3,3,3,3,3,3,3,3,1,
1,3,3,3,3,3,3,3,3,3,3,3,3,3,3,3,3,3,1,
1,3,3,3,3,3,3,3,3,3,3,3,3,3,3,3,3,3,1,
1,3,3,3,3,3,3,3,3,3,3,3,3,3,3,3,3,3,1,
1,1,1,1,1,1,1,1,3,3,3,1,1,1,1,1,1,1,1
</data>
 </layer>
 <objectgroup id="2" name="Object Layer 1">
  <object id="1" name="royal_chair" type="Table" gid="4" x="137.498" y="54.4452" width="28.8905" height="35.1095">
   <properties>
    <property name="functionField" value="The Chair of the Elder of the village. Since when could a small village afford a golden chair?"/>
   </properties>
  </object>
  <object id="2" gid="5" x="61.7385" y="97.1307" width="24.3675" height="31.1519"/>
  <object id="3" gid="5" x="232.481" y="97.9788" width="26.0636" height="30.8693"/>
 </objectgroup>
</map>
