<?xml version="1.0" encoding="UTF-8"?>
<map version="1.10" tiledversion="1.11.2" orientation="orthogonal" renderorder="right-down" width="50" height="50" tilewidth="16" tileheight="16" infinite="0" nextlayerid="3" nextobjectid="100">
 <properties>
  <property name="camShouldMove" type="bool" value="true"/>
 </properties>
 <tileset firstgid="1" source="../../../spawnArea.tsx"/>
 <tileset firstgid="11" source="../tiles/spawnObjects.tsx"/>
 <layer id="1" name="Tile Layer 1" width="50" height="50">
  <data encoding="csv">
4,4,4,4,4,4,4,4,4,4,4,4,8,8,8,8,8,8,8,8,8,8,8,1,1,1,1,1,1,1,1,8,8,8,8,8,8,8,4,4,4,4,9,9,9,9,9,4,4,4,
4,4,4,4,4,4,4,4,4,4,4,6,1,1,1,1,1,1,1,1,1,1,1,1,1,1,1,1,1,1,1,1,1,1,1,1,1,1,7,4,4,4,9,9,9,9,9,4,4,4,
4,4,4,4,4,4,4,4,4,4,4,6,4,4,4,4,4,1,1,1,1,1,1,1,1,1,1,1,1,1,1,1,1,1,1,1,1,1,7,4,4,4,9,9,9,9,4,4,4,4,
4,4,4,4,4,4,4,4,4,4,4,6,4,4,4,4,4,1,1,1,1,1,1,1,1,1,1,1,1,1,1,1,1,1,1,1,1,1,7,4,4,4,9,9,9,9,4,4,4,4,
4,4,4,4,4,4,4,4,4,4,4,6,4,4,4,4,4,1,1,1,1,1,1,1,1,1,1,1,1,1,1,1,1,1,1,1,1,1,7,4,4,4,9,9,9,9,4,4,4,4,
4,4,4,4,4,4,4,4,4,4,4,6,4,4,4,4,4,1,1,1,1,1,1,1,1,1,1,1,1,1,1,1,1,1,1,1,1,1,7,4,4,4,9,9,9,9,4,4,4,4,
4,4,4,4,4,4,4,4,4,4,4,6,4,4,4,4,4,1,1,1,1,1,1,1,1,1,1,1,1,1,1,1,1,1,1,1,1,1,7,4,4,4,9,9,9,9,4,4,4,4,
4,4,4,4,4,4,4,4,4,4,4,6,1,1,1,1,1,1,1,1,1,1,1,1,1,1,1,1,1,1,1,1,1,1,1,1,1,1,7,4,4,4,9,9,9,9,4,4,4,4,
4,4,4,4,4,4,4,4,4,4,4,3,3,3,3,3,3,3,3,3,3,3,3,3,6,1,1,1,1,1,1,7,3,3,3,3,3,3,3,4,4,4,9,9,9,9,4,4,4,4,
4,4,4,4,4,4,4,4,4,4,4,2,2,2,2,2,2,2,2,2,2,2,2,2,6,1,1,1,1,1,1,7,2,2,2,2,2,2,2,4,4,4,9,9,9,9,4,4,4,4,
4,4,4,4,4,4,4,4,4,4,4,2,2,2,2,2,2,2,2,2,2,2,2,2,6,1,1,1,1,1,1,7,2,2,2,2,2,2,2,4,4,4,9,9,9,9,4,4,4,4,
4,4,4,4,4,4,4,4,4,4,4,2,2,2,2,2,2,2,2,2,2,2,2,2,6,1,1,1,1,1,1,7,2,2,2,2,2,2,2,4,4,4,9,9,9,9,9,4,4,4,
1,1,1,1,1,1,1,1,1,1,1,1,1,1,1,1,1,1,1,1,1,1,1,1,6,1,1,1,1,1,1,7,1,1,1,1,1,1,1,4,4,9,9,9,9,9,9,4,4,4,
1,1,1,1,1,1,1,1,1,1,1,1,1,1,1,1,1,1,1,1,1,1,1,1,6,1,1,1,1,1,1,7,1,1,1,1,1,1,1,4,4,9,4,9,4,9,9,4,4,4,
1,1,1,1,1,1,1,1,1,1,1,1,1,1,1,1,1,1,1,1,1,1,1,1,6,1,1,1,1,1,1,7,1,1,1,1,1,1,1,4,4,9,4,4,4,4,9,4,4,4,
10,10,10,10,10,10,10,1,1,1,1,1,7,1,1,1,1,1,1,1,1,1,1,1,6,1,1,1,1,1,1,7,1,1,1,1,1,1,1,4,4,4,4,4,4,4,9,4,4,4,
10,10,10,10,10,10,10,10,10,10,10,10,10,7,1,1,1,1,1,1,1,1,1,1,6,1,1,1,1,1,1,7,1,1,1,1,1,1,1,4,4,4,4,4,4,4,9,4,4,4,
10,10,10,10,10,10,10,10,10,10,10,10,10,7,1,1,1,1,1,1,1,1,1,1,6,1,1,1,1,1,1,7,1,1,1,1,1,1,1,4,4,4,4,4,4,4,4,4,4,4,
10,10,10,10,10,10,10,10,10,10,10,10,10,7,1,1,1,1,1,1,1,1,1,1,6,1,1,1,1,1,1,7,1,1,1,1,1,1,1,4,4,4,4,4,9,4,4,4,4,4,
10,10,10,10,10,10,10,10,10,10,10,10,10,10,7,1,1,1,1,1,1,1,1,1,1,1,9,9,9,9,1,1,1,1,1,1,1,1,1,4,4,9,4,4,9,4,4,4,4,4,
10,10,10,10,10,10,10,10,10,10,10,10,10,10,7,1,1,1,1,1,1,1,1,1,1,1,9,9,9,9,1,1,1,1,1,1,1,1,1,4,4,4,4,9,9,4,4,4,4,4,
10,10,10,10,10,10,10,10,10,10,10,10,10,10,7,1,1,1,1,1,1,1,1,1,1,9,9,9,9,9,1,1,1,1,1,1,1,1,1,4,4,4,4,4,4,4,4,4,4,4,
10,10,10,10,10,10,10,10,10,10,10,10,10,10,9,9,9,9,9,9,9,9,9,9,9,9,9,9,9,9,1,1,1,1,1,1,4,4,4,4,4,4,9,4,4,4,4,9,9,9,
10,10,10,10,10,10,10,10,10,10,10,10,10,10,9,9,9,9,9,9,9,9,9,9,9,9,9,9,9,9,9,9,9,9,9,9,9,9,9,9,9,9,9,4,4,9,4,4,9,9,
10,10,10,10,10,10,10,10,10,10,10,10,10,10,9,9,9,9,9,9,9,9,9,9,9,9,9,9,9,9,9,9,9,9,9,9,9,9,9,9,4,4,4,4,4,4,9,9,9,9,
10,10,10,10,10,10,10,10,10,10,10,10,10,10,9,9,9,9,9,9,9,9,9,9,9,9,9,9,9,9,9,9,9,9,9,9,9,9,9,9,4,4,4,4,4,9,9,9,9,9,
10,10,10,10,10,10,10,10,10,10,10,10,10,7,8,1,1,1,1,1,1,1,1,1,1,1,9,9,9,9,9,9,9,9,9,1,1,1,1,1,1,1,1,1,1,1,1,1,1,1,
10,10,10,10,10,10,10,10,10,10,10,10,10,7,1,1,1,1,1,1,1,1,1,1,1,1,9,9,9,9,9,1,1,1,1,1,1,1,1,1,1,1,1,1,1,1,1,1,1,1,
10,10,10,10,10,10,10,10,10,10,10,10,10,7,1,1,1,1,1,1,1,1,1,1,1,1,9,9,9,9,1,1,1,1,1,1,1,1,1,1,1,1,1,1,1,1,1,1,1,1,
5,5,5,5,5,5,10,10,10,10,10,10,10,7,1,1,1,1,1,1,1,1,1,1,1,1,9,9,9,9,1,1,1,1,1,1,1,1,1,1,1,1,1,1,1,1,1,1,1,1,
4,4,4,4,4,5,5,5,5,5,5,5,5,4,1,1,1,1,1,1,1,1,1,1,1,1,9,9,9,9,1,1,1,1,1,1,1,1,1,1,1,1,1,1,1,1,1,1,1,1,
4,4,4,4,4,4,4,4,4,4,4,4,4,4,1,1,1,1,1,1,1,1,1,1,1,1,9,9,9,9,1,1,1,1,1,1,1,1,1,1,1,1,1,1,1,1,1,1,1,1,
4,4,4,4,4,4,4,4,4,4,4,4,4,4,1,1,1,1,1,1,1,1,1,1,1,1,9,9,9,9,1,1,1,1,1,1,1,1,1,1,1,1,1,1,1,1,1,1,1,1,
4,4,4,4,4,4,4,4,4,4,4,4,4,5,1,1,1,1,1,1,1,1,1,1,1,1,9,9,9,1,1,1,1,1,1,1,1,1,1,1,1,1,1,1,1,1,1,1,1,1,
5,5,5,5,5,5,5,5,5,5,5,5,5,1,1,1,1,1,1,1,1,1,1,1,1,1,9,9,9,1,1,1,1,1,1,1,1,1,1,1,1,1,1,1,1,1,1,1,1,1,
10,10,10,10,10,10,10,10,10,10,10,10,10,10,10,10,10,10,10,10,10,1,1,1,1,1,9,9,9,1,1,1,1,1,1,1,1,1,1,1,1,1,1,1,1,1,1,1,1,1,
10,10,10,10,10,10,10,10,10,10,10,10,10,10,10,10,10,1,1,1,1,1,1,1,1,1,9,9,9,1,1,1,1,1,1,1,1,1,1,1,1,1,1,1,1,1,1,1,1,1,
10,10,10,10,10,10,10,10,10,10,10,10,10,10,10,10,1,9,9,9,9,9,9,9,9,9,9,9,9,1,1,1,1,1,1,1,1,1,1,1,1,1,1,1,1,1,1,1,1,1,
10,10,10,10,10,10,10,10,10,10,10,10,9,9,9,9,9,9,9,9,9,9,9,9,9,9,9,9,9,1,1,1,1,1,1,1,1,1,1,1,1,1,1,1,1,1,1,1,1,1,
10,10,10,10,10,10,10,1,1,1,9,9,9,9,9,9,9,9,9,9,9,9,9,9,9,9,9,9,1,1,1,1,1,1,1,1,1,1,1,1,1,1,1,1,1,1,1,1,1,1,
10,10,10,10,10,10,10,9,9,9,9,9,9,9,9,9,9,9,9,9,9,9,9,9,9,1,1,1,1,1,1,1,1,1,1,1,1,1,1,1,1,1,1,1,1,1,1,1,1,1,
10,10,10,10,10,10,10,9,9,9,9,9,9,9,9,9,9,9,9,9,9,1,1,1,1,1,1,1,1,1,1,1,1,1,1,1,1,1,1,1,1,1,1,1,1,1,1,1,1,1,
10,10,10,10,10,10,10,10,10,10,10,10,10,10,10,10,9,9,9,9,1,1,1,1,1,1,1,1,1,1,1,1,1,1,1,1,1,1,1,1,1,1,1,1,1,1,1,1,1,1,
10,10,10,10,10,10,10,10,10,10,10,10,10,10,10,10,9,9,9,9,1,1,1,1,1,1,1,1,1,1,1,1,1,1,1,1,1,1,1,1,1,1,1,1,1,1,1,1,1,1,
10,10,10,10,10,10,10,10,10,10,10,10,10,10,10,10,9,9,9,9,1,1,1,1,1,1,1,1,1,1,1,1,1,1,1,1,1,1,1,1,1,1,1,1,1,1,1,1,1,1,
10,10,10,10,10,10,10,10,10,10,10,10,10,10,10,10,9,9,9,9,1,1,1,1,1,1,1,1,1,1,1,1,1,1,1,1,1,1,1,1,1,1,1,1,1,1,1,1,1,1,
10,10,9,9,9,9,10,10,10,10,10,10,10,10,10,10,9,9,9,9,1,1,1,1,1,1,1,1,1,1,1,1,1,1,1,1,1,1,1,1,1,1,1,1,1,1,1,1,1,1,
10,10,9,9,9,9,10,10,10,10,10,10,10,10,10,10,9,9,9,9,1,1,1,1,1,1,1,1,1,1,1,1,1,1,1,1,1,1,1,1,1,1,1,1,1,1,1,1,1,1,
10,1,9,9,9,9,1,10,10,10,10,10,10,10,10,10,9,9,9,9,1,1,1,1,1,1,1,1,1,1,1,1,1,1,1,1,1,1,1,1,1,1,1,1,1,1,1,1,1,1,
1,1,9,9,9,9,1,1,10,10,10,10,10,10,10,10,9,9,9,9,1,1,1,1,1,1,1,1,1,1,1,1,1,1,1,1,1,1,1,1,1,1,1,1,1,1,1,1,1,1
</data>
 </layer>
 <objectgroup id="2" name="Object Layer 1">
  <object id="20" gid="11" x="150.667" y="304.333" width="38.3333" height="41"/>
  <object id="22" gid="11" x="91.8333" y="305.833" width="38.3333" height="41"/>
  <object id="23" gid="11" x="184.5" y="347.833" width="38.3333" height="41"/>
  <object id="24" gid="11" x="160.167" y="470.167" width="38.3333" height="41"/>
  <object id="25" gid="11" x="7.83335" y="455.5" width="38.3333" height="41"/>
  <object id="26" gid="12" x="3" y="268.667" width="89" height="50"/>
  <object id="27" gid="13" x="101" y="474.5" width="39.5" height="41"/>
  <object id="28" gid="13" x="54.75" y="462.5" width="39.5" height="41"/>
  <object id="29" gid="14" x="529.667" y="89.6667" width="58.5" height="61.5"/>
  <object id="30" gid="11" x="5.83335" y="606" width="38.3333" height="41"/>
  <object id="31" gid="11" x="210.333" y="602" width="38.3333" height="41"/>
  <object id="32" gid="11" x="126.333" y="622" width="38.3333" height="41"/>
  <object id="33" gid="11" x="197.833" y="797.5" width="38.3333" height="41"/>
  <object id="34" gid="11" x="136.833" y="798.5" width="38.3333" height="41"/>
  <object id="35" gid="11" x="216.333" y="716" width="38.3333" height="41"/>
  <object id="36" gid="11" x="168.833" y="753" width="38.3333" height="41"/>
  <object id="37" gid="11" x="127.833" y="717.5" width="38.3333" height="41"/>
  <object id="39" gid="13" x="60.75" y="607.5" width="39.5" height="41"/>
  <object id="40" gid="12" x="7" y="736.5" width="111.5" height="62"/>
  <object id="41" gid="15" x="0" y="192" width="55" height="63"/>
  <object id="42" gid="15" x="51" y="192" width="55" height="63"/>
  <object id="43" gid="15" x="112.5" y="191.5" width="55" height="63"/>
  <object id="44" gid="15" x="378.5" y="18.5" width="40.5" height="53"/>
  <object id="45" gid="15" x="418.5" y="21.5" width="42" height="54"/>
  <object id="46" gid="15" x="461.5" y="21" width="39" height="52.5"/>
  <object id="48" gid="15" x="764" y="794.5" width="32" height="32"/>
  <object id="49" gid="15" x="762.5" y="753" width="32" height="32"/>
  <object id="50" gid="15" x="731" y="793.5" width="32" height="32"/>
  <object id="51" gid="15" x="730.5" y="752" width="32" height="32"/>
  <object id="52" gid="15" x="696.5" y="792.5" width="32" height="32"/>
  <object id="53" gid="15" x="667" y="792" width="32" height="32"/>
  <object id="54" gid="15" x="645" y="793.5" width="32" height="32"/>
  <object id="55" gid="15" x="616.5" y="793" width="32" height="32"/>
  <object id="56" gid="15" x="699" y="753" width="32" height="32"/>
  <object id="57" gid="15" x="667" y="754" width="32" height="32"/>
  <object id="58" gid="15" x="760.5" y="715.5" width="32" height="32"/>
  <object id="59" gid="15" x="759.5" y="676.5" width="32" height="32"/>
  <object id="60" gid="15" x="731.5" y="721" width="32" height="32"/>
  <object id="61" gid="15" x="732.5" y="686.5" width="32" height="32"/>
  <object id="62" gid="15" x="703" y="728.5" width="32" height="32"/>
  <object id="63" gid="15" x="702" y="695.5" width="32" height="32"/>
  <object id="64" gid="15" x="667" y="726" width="32" height="32"/>
  <object id="65" gid="15" x="625.5" y="762" width="32" height="32"/>
  <object id="66" gid="15" x="596.5" y="791.5" width="32" height="32"/>
  <object id="67" gid="15" x="567" y="795" width="32" height="32"/>
  <object id="68" gid="15" x="522" y="791.5" width="32" height="32"/>
  <object id="69" gid="15" x="468" y="793.5" width="32" height="32"/>
  <object id="70" gid="15" x="522" y="747.5" width="32" height="32"/>
  <object id="71" gid="15" x="591.5" y="697.5" width="32" height="32"/>
  <object id="72" gid="15" x="630.5" y="724" width="32" height="32"/>
  <object id="73" gid="15" x="758" y="637.5" width="32" height="32"/>
  <object id="74" gid="15" x="762" y="556" width="32" height="32"/>
  <object id="75" gid="15" x="725.5" y="498.5" width="32" height="32"/>
  <object id="76" gid="15" x="698" y="658" width="32" height="32"/>
  <object id="77" gid="15" x="661" y="618" width="32" height="32"/>
  <object id="78" gid="15" x="665.5" y="684" width="32" height="32"/>
  <object id="79" gid="15" x="624.5" y="681.5" width="32" height="32"/>
  <object id="80" gid="15" x="590.5" y="619.5" width="32" height="32"/>
  <object id="81" gid="15" x="594" y="746.5" width="32" height="32"/>
  <object id="82" gid="15" x="560.5" y="750" width="32" height="32"/>
  <object id="83" gid="15" x="496.5" y="795" width="32" height="32"/>
  <object id="84" gid="15" x="378.5" y="798.5" width="32" height="32"/>
  <object id="85" gid="15" x="682" y="549" width="32" height="32"/>
  <object id="86" gid="15" x="476" y="675.5" width="32" height="32"/>
  <object id="98" name="exit_1" type="Exit" gid="17" x="550.5" y="88.5" width="17" height="12">
   <properties>
    <property name="functionField" value="C:\Users\NewAdmin\Documents\sin_game\src\resources\tileMaps\start.tmj 250 400"/>
   </properties>
  </object>
  <object id="99" name="exit_2" type="Exit" gid="17" x="44.5" y="267.5" width="17.5" height="11.5">
   <properties>
    <property name="functionField" value="C:\Users\NewAdmin\Documents\sin_game\src\resources\tileMaps\start.tmj 250 400"/>
   </properties>
  </object>
 </objectgroup>
</map>
